X:77
T: Rustemul
O:rumania
R:
B:
D:
Z: John Chambers <jc@trillian.mit.edu> http://trillian.mit.edu/~jc/music/
N: Retranscribed from Ralph Iverson's transcription.
M: 6/8
L: 1/8
K: Em
P: Intro
| "Em"EEE Ez E | EEE Ez E | EEE Ez E | EEE Ez ||
|: b | "Em"^aab age | ege B2b | "Em"^aab age | ege ez :|
|: e | "Em"ege ege | ege B3 | "Am"eeg ^age | "Em"ege ez :|
|: g | "Em"e/^d/e/d/e/f/ g2f | "Em"e/^d/e/d/e/f/ g2f | "Em"e/^d/e/d/e/f/ "Am"g2f | "Em"eeB ez :|
|: b | "B7"BBb B2b | BBb B2b | "Em"BB^A "Am"{f}g2f | "B7"e/^d/e/d/e/f/ "Em"g^ab | ^age "Am"age | "B7"ege "Em"e"fine"z :|
|: b | "G"d'd'd' d'bg | gbg d2b | d'd'd' d'bg | gbg gz :|
